!! 00008] TT[TB
!! Eigene Aufnahme
!!!OTL: Ni duozou le wode xin
!!!ARE: Neimeng Xilingele
!! Ethnic Group: Menggu
!! IV, 366
!!!SCT: C0191
!!!YEM: Copyright 1995, estate of Helmut Schaffrath.
**kern
*ICvox
*Ivox
*M2/4
*k[b-]
*F:
{8a
8cc
8a
16cc
16dd
=1
8ff
16ff
16gg
16dd
16ff
16dd
16cc
=2
4cc
16cc
16a
16g
16cc
=3
8.cc
16dd
16cc
16dd
8ff}
=4
{8a
8cc
8a
16cc
16dd
=5
8ff
16ff
16gg
16dd
16ff
16dd
16cc
=6
4cc
16cc
16a
16g
16cc
=7
8.cc
16dd
4cc}
=8
{8cc
8cc
8dd
8ff
=9
8.f
16g
8f
8d
=10
8.f
16g
8a
8cc
=11
8.g
16a
4g}
=12
{8g
8cc
8g
16a
16cc
=13
8cc
8ff
16dd
16ff
16dd
16cc
=14
8.cc
16ff
8a
8g
=15
2f}
=16
{4a
8g
[8cc
=17
4.cc]
8d
=18
2c}
=19
{8a
16cc
16dd
8cc
16a
16g
=20
8.f
16g
8a
16cc
16dd
=21
4.ff
8gg}
=22
{8dd
16ff
16gg
8dd
16cc
16dd
=23
4.cc
8a}
=24
{8g
16cc
16dd
8d
16f
16g
=25
8a
8g
8g
16g
16a
=26
2f}
==
!!!AGN: Minjian yishu gequ. Biaoda aiqing
!! Hier stimmen noch die Geruesttoene. VARIANTE. Die Phrasenenden
!!    in 1 und 2 werden nicht gesungen. Der Schluss scheint veraendert.
!!    2 verschiedene Tempi (=Phrasen 1-5, 6-9)
!!    Saenger: Chao Lun Batou
!!!ONB: ESAC (Essen Associative Code) Database: CHINA
!!!AMT: simple duple
!!!AIN: vox
!!!EED: Helmut Schaffrath
!!!EEV: 1.0
*-
!!!ONB: Tied note syntax fixed by Craig Sapp, 2004/05/03/
